X:1
T:God of Awful Majesty
T:God of Awful Majesty
T:Scott Wederbaugh, 2017
T:Charles Wesley, 1755, alt.
T:© 2017 Scott Werdebaugh. Reproduce or publish freely for Christian worship or devotions. Courtesy of the Cyber Hymnal™
T:© 2017 Scott Werdebaugh. Reproduce or publish freely for Christian worship or devotions. Courtesy of the Cyber Hymnal™
C:Scott Wederbaugh, 2017
Z:© 2017 Scott Werdebaugh. Reproduce or publish freely for Christian worship or devotions.
Z:Courtesy of the Cyber Hymnal™
%%score ( 1 2 ) ( 3 4 )
L:1/8
Q:1/4=105
M:4/4
K:Eb
V:1 treble 
V:2 treble 
V:3 bass 
V:4 bass 
V:1
 [EG]4 [FA]4 | [DG]3 [DA] [DG]2 [DF]2 | [CE]4 z2 [EG]2 | [FA]3 [FB] [Gc]2 [Ac]2 | [G=B]6 z2 | %5
w: 1.~God of|aw- ful ma- jes-|ty, Thy|glo- rious name we|praise;|
w: 2.~Ven- geance|on Thy foes to|take Hast|Thou in an- ger|sworn?|
w: 3.~But if|so Thy will or-|dain Its|close de- sign to|hide,|
w: 4.~Bless- éd|are the ser- vants,|Lord, Whom|Thou shalt watch- ing|find,|
w: 5.~Should the|earth this mo- ment|cleave, And|swal- low up the|just,|
 [Gc]3 [Ad] [ce]2 [ce]2 | [=Bd]6 [Bd]2 | [Gc]6 z2 | [ce]4 (dc) [G_B]2 | [GB]4 [_Ac]4 | [=Ad]6 z2 | %11
w: Known are all Thy|works to|Thee|Of judg- * ment,|and of|grace:|
w: Sworn a- gain our|earth to|shake,|And from * its|base o’er-|turn?|
w: Let us in Thy|work re-|main,|And in * Thy|love a-|bide;|
w: Hang- ing on Thy|faith- ful|word,|And to * Thy|will re-|signed;|
w: Je- sus would their|souls re-|ceive,|And guard * their|sleep- ing|dust:|
 [_Be]4 [=Ad]2 [Ac][Ad] | [_Bd]3 [Bd] [GB]3 [GB] | (c3 _d) (c2 _B2) | [FA]4 z2 [CF]2 | %15
w: In Thine on- ly|breast it lies To|raise * or *|sink, re-|
w: Sure- ly then to|A- braham’s seed Thou|shalt * re- *|veal the|
w: Stand for all e-|vents pre- pared, With|pa- * tience *|armed and|
w: Safe a- midst the|darts of death, Se-|cure * they *|rest in|
w: Though their dust the|whirl- wind sweep To|earth’s~pro- * foundest *|core, their|
 [CG]4 [C=E]4 | [CF]6 z2 (GA) | [GB]4 [GB]2 [GB]2 | [Gc]4 [Gc]4 | [G=B]4 z2 [GB]2 | [Gc]4 [Gc]4 | %21
w: vive or|slay: Wilt *|Thou yet a-|gain chas-|tise, Or|turn Thy|
w: wrath to|come, Speak *|the pun- ish-|ment de-|creed, And|warn us|
w: god- ly|fear; Stand *|for ev- er|on our|guard, Till|Thy great|
w: all a-|larms, Sure *|their Lord hath|spread be-|neath His|ev- er-|
w: sins for-|giv’n, Soon, *|e- merg- ing|from the|deep, They|rise, they|
 [=Bd]4 [FB]4 | [Gc]6 z2 |] %23
w: wrath a-|way?|
w: of our|doom.|
w: arm ap-|pear.|
w: last- ing|arms.|
w: mount to|Heav’n!|
V:2
 x8 | x8 | x8 | x8 | x8 | x8 | x8 | x8 | x4 =A2 x2 | x8 | x8 | x8 | x8 | _A4 G4 | x8 | x8 | %16
 x8 _E2 | x8 | x8 | x8 | x8 | x8 | x8 |] %23
V:3
 [C,C]4 [A,C]4 | [G,B,]3 [F,B,] [G,B,]2 [G,B,]2 | [C,G,]4 z2 [C,C]2 | [F,C]3 [F,C] [C,E]2 [C,F]2 | %4
 [G,,D]6 z2 | [C,E]3 [F,F] [C,G]2 [C,G]2 | [G,G]6 [G,F]2 | [C,E]6 z2 | [C,G]4 [D,^F]2 [G,D]2 | %9
 [E,E]4 [_A,E]4 | [D,^F]6 z2 | [E,G]4 [D,^F]2 [D,F][D,F] | [D,G]3 [D,G] [D,D]3 [D,D] | %13
 [=F,=F]4 [C,=E]4 | [A,,C]4 z2 [A,,A,]2 | [G,,_B,]4 (B,2 G,2) | [A,,A,]6 z2 [C,C]2 | %17
 [B,,D]4 [B,,D]2 [B,,D]2 | [C,E]4 [C,E]4 | [G,D]4 z2 [G,D]2 | [C,E]4 [C,E]4 | [G,,D]4 [G,,G]4 | %22
 [C,E]6 z2 |] %23
V:4
 x8 | x8 | x8 | x8 | x8 | x8 | x8 | x8 | x8 | x8 | x8 | x8 | x8 | x8 | x8 | x4 C,4 | x10 | x8 | %18
 x8 | x8 | x8 | x8 | x8 |] %23

